X:16
T:Lady Jane Neville
T:Lady Jane Nevill's Reel
R:reel
C:Wm. Marshall
B:Marshall's Scottish Airs and Melodies, 1822
D:Laments and Merry Melodies, Theresa Morrison
Z:Paul Stewart Cranford (P.S.C.), <http://www.cranfordpub.com>
L:1/8
M:C|
K:G
d|g2 dg Bgdg|Bgdg {g}a2 (ab)|g2 dg BgdB|ADFD {D}G2 G:|
||c|BddB ceec|BddB A2 Ac|BddB cdeg|dgBa g2 gd|
BddB ceec|BddG A2 Ac|BdBd cece|dgfa g2 g|]
